src/images/profile.svg

<svg width="100" height="30" viewBox="0 0 100 30" fill="none" xmlns="http://www.w3.org/2000/svg">
<path d="M1.97869 20H0.348011L4.01207 9.81818H5.78693L9.45099 20H7.82031L4.94176 11.6676H4.86222L1.97869 20ZM2.25213 16.0128H7.5419V17.3054H2.25213V16.0128ZM10.802 20V12.3636H12.2885V15.5653H13.0044L15.525 12.3636H17.3645L14.4064 16.0774L17.3993 20H15.5549L13.253 16.9474H12.2885V20H10.802ZM18.554 20V12.3636H20.0405V15.5653H20.7564L23.277 12.3636H25.1165L22.1584 16.0774L25.1513 20H23.3068L21.005 16.9474H20.0405V20H18.554ZM28.5282 20.169C28.0443 20.169 27.6068 20.0795 27.2157 19.9006C26.8246 19.7183 26.5147 19.4548 26.286 19.1101C26.0607 18.7654 25.948 18.3428 25.948 17.8423C25.948 17.4115 26.0308 17.0568 26.1966 16.7784C26.3623 16.5 26.586 16.2796 26.8677 16.1172C27.1494 15.9548 27.4643 15.8321 27.8123 15.7493C28.1603 15.6664 28.515 15.6035 28.8762 15.5604C29.3336 15.5073 29.7048 15.4643 29.9899 15.4311C30.2749 15.3946 30.4821 15.3366 30.6113 15.2571C30.7406 15.1776 30.8052 15.0483 30.8052 14.8693V14.8345C30.8052 14.4003 30.6826 14.0639 30.4373 13.8253C30.1954 13.5866 29.8341 13.4673 29.3535 13.4673C28.853 13.4673 28.4586 13.5784 28.1703 13.8004C27.8852 14.0192 27.688 14.2628 27.5787 14.5312L26.1816 14.2131C26.3474 13.7491 26.5893 13.3745 26.9075 13.0895C27.229 12.8011 27.5985 12.5923 28.0162 12.4631C28.4338 12.3305 28.8729 12.2642 29.3336 12.2642C29.6386 12.2642 29.9617 12.3007 30.3031 12.3736C30.6478 12.4432 30.9693 12.5724 31.2676 12.7614C31.5692 12.9503 31.8161 13.2204 32.0083 13.5717C32.2006 13.9197 32.2967 14.3722 32.2967 14.929V20H30.845V18.956H30.7853C30.6892 19.1482 30.545 19.3371 30.3528 19.5227C30.1606 19.7083 29.9136 19.8625 29.612 19.9851C29.3104 20.1077 28.9492 20.169 28.5282 20.169ZM28.8514 18.9759C29.2624 18.9759 29.6137 18.8946 29.9054 18.7322C30.2003 18.5698 30.4241 18.3577 30.5765 18.0959C30.7323 17.8307 30.8102 17.5473 30.8102 17.2457V16.2614C30.7572 16.3144 30.6544 16.3641 30.502 16.4105C30.3528 16.4536 30.1821 16.4917 29.9899 16.5249C29.7976 16.5547 29.6104 16.5829 29.4281 16.6094C29.2458 16.6326 29.0933 16.6525 28.9707 16.669C28.6824 16.7055 28.4189 16.7668 28.1802 16.853C27.9449 16.9392 27.756 17.0634 27.6135 17.2259C27.4743 17.3849 27.4047 17.5971 27.4047 17.8622C27.4047 18.2301 27.5405 18.5085 27.8123 18.6974C28.0841 18.883 28.4305 18.9759 28.8514 18.9759ZM34.9428 22.8636C34.7208 22.8636 34.5186 22.8454 34.3363 22.8089C34.154 22.7758 34.0181 22.7393 33.9286 22.6996L34.2866 21.4815C34.5584 21.5545 34.8003 21.5859 35.0124 21.576C35.2246 21.5661 35.4118 21.4865 35.5742 21.3374C35.7399 21.1882 35.8858 20.9446 36.0117 20.6065L36.1957 20.0994L33.4016 12.3636H34.9925L36.9265 18.2898H37.006L38.94 12.3636H40.5359L37.3888 21.0192C37.243 21.4169 37.0574 21.7533 36.832 22.0284C36.6067 22.3068 36.3382 22.5156 36.0266 22.6548C35.7151 22.794 35.3538 22.8636 34.9428 22.8636ZM47.1083 15.5405V16.8281H42.9719V15.5405H47.1083ZM43.3896 12.3636V20H41.9329V12.3636H43.3896ZM48.1474 12.3636V20H46.6957V12.3636H48.1474ZM49.1889 13.6463V12.3636H55.6321V13.6463H53.1413V20H51.6896V13.6463H49.1889Z" fill="black"/>
<rect x="70" width="30" height="30" rx="6" fill="#F9F9F9"/>
<path fill-rule="evenodd" clip-rule="evenodd" d="M86.43 16.9675C87.7915 16.4052 88.7495 15.0645 88.7495 13.5C88.7495 11.4289 87.0706 9.75 84.9995 9.75C82.9284 9.75 81.2495 11.4289 81.2495 13.5C81.2495 15.0645 82.2076 16.4052 83.569 16.9675C82.1747 17.1998 80.8921 17.7657 79.8081 18.5802L81.1897 20.419C82.2509 19.6217 83.5685 19.1496 84.9996 19.1496C86.4307 19.1496 87.7483 19.6217 88.8096 20.419L90.1911 18.5802C89.107 17.7657 87.8244 17.1997 86.43 16.9675Z" fill="black"/>
</svg>

<svg width="100" height="30" fill="none" xmlns="http://www.w3.org/2000/svg"><path d="M1.98 20H.35L4 9.82H5.8L9.45 20H7.82l-2.88-8.33h-.08L1.98 20Zm.27-3.99h5.3v1.3h-5.3V16ZM10.8 20v-7.64h1.49v3.2H13l2.53-3.2h1.83l-2.95 3.72L17.4 20h-1.85l-2.3-3.05h-.96V20H10.8Zm7.75 0v-7.64h1.5v3.2h.7l2.53-3.2h1.84l-2.96 3.72 3 3.92H23.3L21 16.95h-.97V20h-1.49Zm9.98.17c-.49 0-.92-.1-1.31-.27-.4-.18-.7-.45-.93-.79a2.27 2.27 0 0 1-.34-1.27c0-.43.08-.78.25-1.06.16-.28.39-.5.67-.66.28-.17.6-.29.94-.37.35-.08.7-.15 1.07-.19l1.11-.13c.28-.04.5-.1.62-.17.13-.08.2-.21.2-.4v-.03c0-.43-.13-.77-.37-1-.24-.24-.6-.36-1.09-.36-.5 0-.9.1-1.18.33-.28.22-.48.46-.6.73l-1.39-.32a2.69 2.69 0 0 1 1.84-1.75 4.33 4.33 0 0 1 2.28-.09c.35.07.67.2.97.4.3.18.55.45.74.8.2.35.29.8.29 1.36V20h-1.45v-1.04h-.06a2.3 2.3 0 0 1-1.17 1.03c-.31.12-.67.18-1.1.18Zm.32-1.2c.41 0 .76-.08 1.06-.24a1.7 1.7 0 0 0 .9-1.48v-.99a.78.78 0 0 1-.3.15 4.8 4.8 0 0 1-.52.11 60.57 60.57 0 0 1-1.02.15c-.29.04-.55.1-.79.18-.24.09-.42.21-.57.38a.93.93 0 0 0-.2.63c0 .37.13.65.4.84.27.18.62.28 1.04.28Zm6.1 3.9a3.1 3.1 0 0 1-1.02-.17l.36-1.22c.27.07.51.1.72.1.21-.01.4-.1.56-.24.17-.15.32-.4.44-.73l.19-.51-2.8-7.74H35l1.93 5.93H37l1.93-5.93h1.6l-3.15 8.66c-.15.4-.33.73-.56 1-.22.29-.5.5-.8.63-.31.14-.68.21-1.09.21Zm12.16-7.33v1.29h-4.14v-1.29h4.14Zm-3.72-3.18V20h-1.46v-7.64h1.46Zm4.76 0V20H46.7v-7.64h1.45Zm1.04 1.29v-1.29h6.44v1.29h-2.49V20H51.7v-6.35h-2.5Z" fill="#000"/><rect x="70" width="30" height="30" rx="6" fill="#F9F9F9"/><path fill-rule="evenodd" clip-rule="evenodd" d="M86.43 16.97a3.75 3.75 0 1 0-2.86 0c-1.4.23-2.68.8-3.76 1.61l1.38 1.84a6.32 6.32 0 0 1 7.62 0l1.38-1.84a8.61 8.61 0 0 0-3.76-1.61Z" fill="#000"/></svg>
